src/ios-bookmarks-outline.svg

<?xml version="1.0" encoding="utf-8"?>
<!-- Generated by IcoMoon.io -->
<!DOCTYPE svg PUBLIC "-//W3C//DTD SVG 1.1//EN" "http://www.w3.org/Graphics/SVG/1.1/DTD/svg11.dtd">
<svg version="1.1" xmlns="http://www.w3.org/2000/svg" xmlns:xlink="http://www.w3.org/1999/xlink" width="512" height="512" viewBox="0 0 512 512">
<path fill="#000000" d="M432 64h-150.4c-10.3 0-19.3 4.6-25.6 11.7v0 0c-6.2-7.2-15.3-11.7-25.6-11.7h-150.4c-18.8 0-33 13.3-33 32v286.1c0 18.8 14.2 33.9 33 33.9 0 0 129.5 0 143.3 0s24.7 4.2 24.7 19.4c0 9.1 0 12.6 0 12.6h16c0 0 0-3.4 0-12.6 0-15.3 10.9-19.4 24.7-19.4s143.3 0 143.3 0c18.8 0 33-15.1 33-33.9v-286.1c0-18.7-14.2-32-33-32zM248 411.1c-4.7-7.8-13.5-11.1-23.8-11.1h-144.2c-9.4 0-16-8.5-16-17.9v-286.1c0-9.4 6.6-16 16-16 0 0 130.6 0 143.3 0 12.8 0 24.7 12.8 24.7 22.2v308.9zM320 80c18.8 0 43 0 64 0v100.4l-22.9-14.5-9.1-6.4-9.1 6.4-22.9 14.5v-100.4zM448 382.1c0 9.4-6.6 17.9-16 17.9h-144.2c-10.3 0-19.1 2.3-23.8 11.1v-308.9c0-9.4 11.9-22.2 24.7-22.2 2.2 0 7.7 0 15.3 0v131l48-32 48 32v-131c18.6 0 32 0 32 0 9.4 0 16 6.7 16 16v286.1z"></path>
</svg>

<?xml version="1.0" encoding="utf-8"?>
<!-- Generator: Adobe Illustrator 16.2.1, SVG Export Plug-In . SVG Version: 6.00 Build 0)  -->
<!DOCTYPE svg PUBLIC "-//W3C//DTD SVG 1.1//EN" "http://www.w3.org/Graphics/SVG/1.1/DTD/svg11.dtd">
<svg version="1.1" id="Layer_1" xmlns="http://www.w3.org/2000/svg" xmlns:xlink="http://www.w3.org/1999/xlink" x="0px" y="0px"
	 width="512px" height="512px" viewBox="0 0 512 512" style="enable-background:new 0 0 512 512;" xml:space="preserve">
<path d="M432,64H281.6c-10.3,0-19.3,4.6-25.6,11.7l0,0l0,0c-6.2-7.2-15.3-11.7-25.6-11.7H80c-18.8,0-33,13.3-33,32v286.1
	c0,18.8,14.2,33.9,33,33.9c0,0,129.5,0,143.3,0c13.8,0,24.7,4.2,24.7,19.4c0,9.1,0,12.6,0,12.6h8h8c0,0,0-3.4,0-12.6
	c0-15.3,10.9-19.4,24.7-19.4s143.3,0,143.3,0c18.8,0,33-15.1,33-33.9V96C465,77.3,450.8,64,432,64z M248,411.1
	c-4.7-7.8-13.5-11.1-23.8-11.1H80c-9.4,0-16-8.5-16-17.9V96c0-9.4,6.6-16,16-16c0,0,130.6,0,143.3,0c12.8,0,24.7,12.8,24.7,22.2
	V411.1z M320,80c18.8,0,43,0,64,0v100.4l-22.9-14.5l-9.1-6.4l-9.1,6.4L320,180.4V80z M448,382.1c0,9.4-6.6,17.9-16,17.9H287.8
	c-10.3,0-19.1,2.3-23.8,11.1V102.2c0-9.4,11.9-22.2,24.7-22.2c2.2,0,7.7,0,15.3,0v131l48-32l48,32V80c18.6,0,32,0,32,0
	c9.4,0,16,6.7,16,16V382.1z"/>
</svg>
